img/clients/wired.svg

<svg width="401" height="82" viewBox="0 0 401 82" xmlns="http://www.w3.org/2000/svg">
  <title>
    wired
  </title>
  <g fill="#231F20" fill-rule="evenodd">
    <path d="M0 0h80.25v82H0V0zm5.91 12.87C9.49 29.54 12.7 46.3 16.15 63c.63 2 .24 4.64 2.18 5.98 3.5.56 7.09.42 10.62.18 1.92.06 2.38-2.2 2.73-3.65 2.41-11.89 5.03-23.74 7.43-35.63.19-1.1.53-2.17 1.05-3.16 2.99 12.76 5.46 25.63 8.24 38.43.38 1.36.46 3.04 1.8 3.87 3.82.46 7.74.5 11.55-.03 1.37-.81 1.44-2.48 1.79-3.86 3.53-17.41 6.82-34.89 10.55-52.26-3.37.02-6.73.01-10.09.01-2.68 15.15-4.83 30.4-7.79 45.5-3.33-12.81-5.56-25.93-8.46-38.86-.66-2.21-.36-5.43-2.78-6.55-2.96-.18-5.94-.19-8.9 0-1.68.14-2.06 2.13-2.39 3.45-2.68 12.82-5.49 25.61-8.11 38.43-.27 1.19-.67 2.33-1.12 3.46-2.69-15.11-5.24-30.26-7.56-45.43-3.66-.01-7.32.01-10.98-.01zM159.75 0H240v82h-80.25V0zm18.13 12.88v56.24H189v-22c6.03.02 12.06-.03 18.09.01 2.2-.21 4.82 1.36 4.77 3.78.28 6.08.8 12.14 1.18 18.21 3.53 0 7.05 0 10.58.01-1-6.88.23-13.99-1.71-20.73-1-3.53-4.9-4.32-7.94-5.2 2.26-1.2 5.16-1.31 6.8-3.51 2.38-3.02 2.55-7.05 2.56-10.73-.04-4.3.06-9.03-2.67-12.64-2.18-3-6.26-3.44-9.68-3.44-11.03-.01-22.07 0-33.1 0zM319.75 0H401v82h-81.25V0zm18.13 12.88v56.24c9.35-.02 18.69.04 28.04-.03 5.76-.11 12.47-1.18 15.94-6.34 4.05-6.48 3.44-14.41 4.15-21.72-.72-7.32-.08-15.28-4.15-21.78-3.23-4.83-9.41-6.1-14.84-6.3-9.71-.16-19.43-.03-29.14-.07zM100.61 12.33c12.93-.03 25.85-.03 38.77 0 .05 3.35.05 6.71.01 10.07-4.57.03-9.14.01-13.71.01.02 12.39.02 24.79 0 37.18 4.57 0 9.14-.02 13.72.02.02 3.35.03 6.71-.02 10.06-12.92.03-25.84.03-38.76 0-.05-3.36-.05-6.71-.01-10.07 4.57-.03 9.14-.01 13.71-.01-.02-12.39-.02-24.79 0-37.18-4.57 0-9.14.02-13.71-.01-.04-3.36-.04-6.71 0-10.07zM254.34 12.34c15.84-.05 31.68-.05 47.53 0 .02 6.22 0 12.44.01 18.66h-10.29c-.01-2.87-.01-5.73.01-8.59-6.2.01-12.39.01-18.59 0-.02 4.3-.01 8.6-.01 12.9h15v9.57h-15c.02 4.91-.05 9.83.05 14.74 6.36-.07 12.72-.02 19.08-.03-.01-3.27-.01-6.54 0-9.81 3.49-.04 6.98-.04 10.47-.01 0 6.63.05 13.26-.03 19.89-16.08.05-32.15.05-48.23 0-.05-3.35-.04-6.7-.01-10.05 2.55-.03 5.09-.03 7.64-.01.05-12.4.05-24.8 0-37.2-2.55.02-5.1.02-7.65-.03-.02-3.34-.02-6.69.02-10.03z"/>
    <path d="M189 22.12c7.14.11 14.29-.22 21.41.15 2.75 1.95 2.2 5.87 2.31 8.82-.14 2.68-.19 6.97-3.76 7.18-6.64.34-13.31.05-19.96.14V22.12zM349 22.12c6.03.03 12.06-.04 18.09.02 2.69-.03 5.76 1.28 6.61 4.04 1.89 5.4 1.09 11.26 1.3 16.88-.16 4.49.31 9.23-1.6 13.44-1.28 2.72-4.59 3.44-7.32 3.39-5.7 0-11.39-.02-17.08-.01V22.12z"/>
  </g>
</svg>

<?xml version="1.0" encoding="UTF-8"?>
<svg width="401px" height="82px" viewBox="0 0 401 82" version="1.1" xmlns="http://www.w3.org/2000/svg" xmlns:xlink="http://www.w3.org/1999/xlink">
    <!-- Generator: Sketch 41.2 (35397) - http://www.bohemiancoding.com/sketch -->
    <title>wired</title>
    <desc>Created with Sketch.</desc>
    <defs></defs>
    <g id="Page-1" stroke="none" stroke-width="1" fill="none" fill-rule="evenodd">
        <g id="wired" fill="#231F20">
            <path d="M0,0 L80.25,0 L80.25,82 L0,82 L0,0 L0,0 Z M5.91,12.87 C9.49,29.54 12.7,46.3 16.15,63 C16.78,65 16.39,67.64 18.33,68.98 C21.83,69.54 25.42,69.4 28.95,69.16 C30.87,69.22 31.33,66.96 31.68,65.51 C34.09,53.62 36.71,41.77 39.11,29.88 C39.3,28.78 39.64,27.71 40.16,26.72 C43.15,39.48 45.62,52.35 48.4,65.15 C48.78,66.51 48.86,68.19 50.2,69.02 C54.02,69.48 57.94,69.52 61.75,68.99 C63.12,68.18 63.19,66.51 63.54,65.13 C67.07,47.72 70.36,30.24 74.09,12.87 C70.72,12.89 67.36,12.88 64,12.88 C61.32,28.03 59.17,43.28 56.21,58.38 C52.88,45.57 50.65,32.45 47.75,19.52 C47.09,17.31 47.39,14.09 44.97,12.97 C42.01,12.79 39.03,12.78 36.07,12.97 C34.39,13.11 34.01,15.1 33.68,16.42 C31,29.24 28.19,42.03 25.57,54.85 C25.3,56.04 24.9,57.18 24.45,58.31 C21.76,43.2 19.21,28.05 16.89,12.88 C13.23,12.87 9.57,12.89 5.91,12.87 Z" id="Shape"></path>
            <path d="M159.75,0 L240,0 L240,82 L159.75,82 L159.75,0 L159.75,0 Z M177.88,12.88 L177.88,69.12 L189,69.12 L189,47.12 C195.03,47.14 201.06,47.09 207.09,47.13 C209.29,46.92 211.91,48.49 211.86,50.91 C212.14,56.99 212.66,63.05 213.04,69.12 C216.57,69.12 220.09,69.12 223.62,69.13 C222.62,62.25 223.85,55.14 221.91,48.4 C220.91,44.87 217.01,44.08 213.97,43.2 C216.23,42 219.13,41.89 220.77,39.69 C223.15,36.67 223.32,32.64 223.33,28.96 C223.29,24.66 223.39,19.93 220.66,16.32 C218.48,13.32 214.4,12.88 210.98,12.88 C199.95,12.87 188.91,12.88 177.88,12.88 Z" id="Shape"></path>
            <path d="M319.75,0 L401,0 L401,82 L319.75,82 L319.75,0 L319.75,0 Z M337.88,12.88 L337.88,69.12 C347.23,69.1 356.57,69.16 365.92,69.09 C371.68,68.98 378.39,67.91 381.86,62.75 C385.91,56.27 385.3,48.34 386.01,41.03 C385.29,33.71 385.93,25.75 381.86,19.25 C378.63,14.42 372.45,13.15 367.02,12.95 C357.31,12.79 347.59,12.92 337.88,12.88 Z" id="Shape"></path>
            <path d="M100.61,12.33 C113.54,12.3 126.46,12.3 139.38,12.33 C139.43,15.68 139.43,19.04 139.39,22.4 C134.82,22.43 130.25,22.41 125.68,22.41 C125.7,34.8 125.7,47.2 125.68,59.59 C130.25,59.59 134.82,59.57 139.4,59.61 C139.42,62.96 139.43,66.32 139.38,69.67 C126.46,69.7 113.54,69.7 100.62,69.67 C100.57,66.31 100.57,62.96 100.61,59.6 C105.18,59.57 109.75,59.59 114.32,59.59 C114.3,47.2 114.3,34.8 114.32,22.41 C109.75,22.41 105.18,22.43 100.61,22.4 C100.57,19.04 100.57,15.69 100.61,12.33 Z" id="Shape"></path>
            <path d="M254.34,12.34 C270.18,12.29 286.02,12.29 301.87,12.34 C301.89,18.56 301.87,24.78 301.88,31 L291.59,31 C291.58,28.13 291.58,25.27 291.6,22.41 C285.4,22.42 279.21,22.42 273.01,22.41 C272.99,26.71 273,31.01 273,35.31 L288,35.31 L288,44.88 L273,44.88 C273.02,49.79 272.95,54.71 273.05,59.62 C279.41,59.55 285.77,59.6 292.13,59.59 C292.12,56.32 292.12,53.05 292.13,49.78 C295.62,49.74 299.11,49.74 302.6,49.77 C302.6,56.4 302.65,63.03 302.57,69.66 C286.49,69.71 270.42,69.71 254.34,69.66 C254.29,66.31 254.3,62.96 254.33,59.61 C256.88,59.58 259.42,59.58 261.97,59.6 C262.02,47.2 262.02,34.8 261.97,22.4 C259.42,22.42 256.87,22.42 254.32,22.37 C254.3,19.03 254.3,15.68 254.34,12.34 Z" id="Shape"></path>
            <path d="M189,22.12 C196.14,22.23 203.29,21.9 210.41,22.27 C213.16,24.22 212.61,28.14 212.72,31.09 C212.58,33.77 212.53,38.06 208.96,38.27 C202.32,38.61 195.65,38.32 189,38.41 L189,22.12 Z" id="Shape"></path>
            <path d="M349,22.12 C355.03,22.15 361.06,22.08 367.09,22.14 C369.78,22.11 372.85,23.42 373.7,26.18 C375.59,31.58 374.79,37.44 375,43.06 C374.84,47.55 375.31,52.29 373.4,56.5 C372.12,59.22 368.81,59.94 366.08,59.89 C360.38,59.89 354.69,59.87 349,59.88 L349,22.12 Z" id="Shape"></path>
        </g>
    </g>
</svg>
